X: 16
T: Merry Blacksmith, The
Z: jdogbishop96
S: https://thesession.org/tunes/72#setting48122
R: reel
M: 4/4
L: 1/8
K: Dmaj
|:A2|"D(12x)"d2dA BAFA|BcdA BAFA|"G(5x)"ABde "D/F#(4x)"f2ed|"G(5x)"Beed "A(7x)"egfe|
"D"d2dA BAFA|ABdA BAFA|"G"ABde "D/F#"fdec|"A"dBAF "D"D2:|
|:fg|"D(12x)"a2ag f2fe|"Em(2x)"d2dA BAFA|"G(5x)"ABde f2ed|"A(7x)"Beed egfe|
[1 "D(12x)"abag fgfe|d2dA BAFA|"G"ABde "D/F#"fdec|"A"dBAF "D"D2:|
[2 "Bm(99x)"abag fgfe|d2dA BAFA|"G"ABde "D/F#"fdec|"A"dBAF "D"D2||

